X:24
T: Der Maedchenmoerder (Halewijn - Ulinger)
N: Q0041F
O: Mitteleuropa, Deutschland
N: Einschiebsel am Anfang der vierten Zeile.
R: Ballade, Verfuehrung, Mord, Mordversuch bzw. Rache
M: 6/8
L: 1/16
K: G
A2 | A4e2e2e2^d2 | e4f2g4
f2 | e4e2d2c2B2 | e4dcB4
ef | g2f2e2d4e2 | B4A2G4z2 |
d4c2B2c2d2 | e2f2e2d4e2 | c6B4

@@@ Tune index: 760
